packages/tokens/icons/refresh/size16Px.svg

<svg viewBox="0 0 16 16" fill="none" xmlns="http://www.w3.org/2000/svg" width="1em" height="1em"><path d="M10.5 5.00002C10.2239 5.00002 10 5.22387 10 5.50002C10 5.77616 10.2239 6.00002 10.5 6.00002V5.00002ZM13.5 5.50002V6.00002C13.7761 6.00002 14 5.77616 14 5.50002H13.5ZM14.5 8.19423C14.5001 7.91809 14.2763 7.69417 14.0001 7.6941C13.724 7.69403 13.5001 7.91783 13.5 8.19397L14.5 8.19423ZM8.58922 2.41333L8.54168 2.91107L8.58922 2.41333ZM14 2.50002C14 2.22387 13.7761 2.00002 13.5 2.00002C13.2239 2.00002 13 2.22387 13 2.50002H14ZM10.5 6.00002H13.5V5.00002H10.5V6.00002ZM13.5 8.19397C13.4997 9.41735 13.0612 10.605 12.2559 11.5544L13.0184 12.2013C13.9748 11.074 14.4996 9.65795 14.5 8.19423L13.5 8.19397ZM12.2559 11.5544C11.4502 12.5042 10.3265 13.157 9.07475 13.3977L9.26358 14.3797C10.7348 14.0968 12.0624 13.3283 13.0184 12.2013L12.2559 11.5544ZM9.07475 13.3977C7.82283 13.6384 6.52396 13.4513 5.40028 12.8696L4.94058 13.7577C6.26502 14.4433 7.79249 14.6626 9.26358 14.3797L9.07475 13.3977ZM5.40028 12.8696C4.27688 12.2881 3.40024 11.3496 2.91595 10.2172L1.99651 10.6105C2.57408 11.9609 3.61587 13.072 4.94058 13.7577L5.40028 12.8696ZM2.91595 10.2172C2.43181 9.08526 2.36835 7.82689 2.7358 6.65533L1.78163 6.35606C1.34264 7.75573 1.41879 9.25969 1.99651 10.6105L2.91595 10.2172ZM2.7358 6.65533C3.10335 5.48346 3.88051 4.46752 4.93901 3.78325L4.39612 2.94344C3.14597 3.75161 2.22053 4.9567 1.78163 6.35606L2.7358 6.65533ZM4.93901 3.78325C5.99782 3.09878 7.27117 2.78972 8.54168 2.91107L8.63677 1.9156C7.14447 1.77307 5.64596 2.13548 4.39612 2.94344L4.93901 3.78325ZM13 2.50002V5.50002H14V2.50002H13ZM8.54168 2.91107C10.5534 3.10321 12.144 4.36746 13.084 5.77737L13.916 5.22267C12.856 3.63257 11.0228 2.14349 8.63677 1.9156L8.54168 2.91107Z" fill="currentColor"/></svg>

<svg xmlns="http://www.w3.org/2000/svg" fill="none" viewBox="0 0 16 16" width="1em" height="1em"><path fill="currentColor" d="M10.5 5a.5.5 0 0 0 0 1V5Zm3 .5V6a.5.5 0 0 0 .5-.5h-.5Zm1 2.694a.5.5 0 1 0-1 0h1Zm-5.91-5.78-.048.497.047-.498ZM14 2.5a.5.5 0 0 0-1 0h1ZM10.5 6h3V5h-3v1Zm3 2.194a5.194 5.194 0 0 1-1.244 3.36l.762.647A6.194 6.194 0 0 0 14.5 8.194h-1Zm-1.244 3.36a5.539 5.539 0 0 1-3.181 1.844l.189.982a6.539 6.539 0 0 0 3.754-2.179l-.762-.647Zm-3.181 1.844A5.675 5.675 0 0 1 5.4 12.87l-.46.888a6.675 6.675 0 0 0 4.324.622l-.19-.982ZM5.4 12.87a5.38 5.38 0 0 1-2.484-2.653l-.92.393a6.38 6.38 0 0 0 2.945 3.148l.46-.888Zm-2.484-2.653a5.133 5.133 0 0 1-.18-3.562l-.954-.299a6.133 6.133 0 0 0 .215 4.255l.919-.394Zm-.18-3.562a5.327 5.327 0 0 1 2.203-2.872l-.543-.84a6.327 6.327 0 0 0-2.614 3.413l.954.3Zm2.203-2.872a5.654 5.654 0 0 1 3.603-.872l.095-.995a6.654 6.654 0 0 0-4.24 1.027l.542.84ZM13 2.5v3h1v-3h-1Zm-4.458.411c2.011.192 3.602 1.456 4.542 2.866l.832-.554c-1.06-1.59-2.893-3.08-5.28-3.307l-.094.995Z"/></svg>
